X: 1430
T: Nağme-i Hunyâger ile
C: Ahmet Avni Konuk
O: Turkey
F: http://compmusic.upf.edu/node/140
N: suzinak--kupe--devrirevanihindi--nagmei_hungarey--ahmet_avni_konuk
N: makam= suzinak
N: form= kupe
N: usul= devrirevanihindi = 14/8
M: 14/8
L: 1/16
K: C _1/4B _7/8e ^f 
Q: 1/4=102
%%MIDI tuningsystem comma53
dcB2 c2d8c4e2 d2c2 B4  | A2B2 dccB BAA2 {B}AGG2 B2AG G6z2  | 
w:  Nağ *  *  me  i hun  |  yâ *  ger  *  i *  *  *  *  *  *  *  le   | 
dcB2 c2d8d2 e2f2 gfef e2d2  | d2e2 eda2 gffe edcd efed d6z2  | 
w:  ol *  *  du  sab rım   |  çâk_ *  *  *  *  *  *  i  *  *  *  çak    | 
d2g2 g2ag gfg2 z2a2 g2f2 gfef e2d2  | \
w:  Gûş  *  e din *  *  *  *  ce   | 
d2{e}d2 c2d3=f=e2 d2d2 c2Bd c6z2  | 
w:  yan *  *  dı  tek *  *  *  râ  | 
c4 =e2d2 {e}dcc2 {d}cBB4{c}BA A2AG d2z2  | \
w:  ren  bu  cism_ *  *  *  *  *  *  *  i   | 
cde2 dcB3AA2 {B}AGG2 B2AG G6z2  | 
w:  Sû *  *  *  *  zi *  *  *  *  *  nâk    | 
|


